X: 130
T:Sunny Banks
R:reel
S:John B. 
M:C|
L:1/8
Q:1/2=112
K:D
B|AF~F2 d2cA|(3Bcd AF ~G3B|AF~F2 d2cA|BdAG FDDB|
AF~F2 d2cA|(3Bcd AF ~G3B|AF~F2 d2cA|BdAF D3||
e|f2ed cA~A2|fdef g2ag|f2ed cA~A2|(3Bcd AG FD~D2|
f2ed cA~A2|fdef g2ag|fded cA~A2|BdAG FD~D2|]
